img/caravan.svg

<svg xmlns="http://www.w3.org/2000/svg" width="120" height="32" viewBox="0 0 120 32">
  <path d="M9.76611109,19.4886235 L9.76611109,23.8484945 C9.76611109,26.02843 8.80693946,26.8132068 7.2809846,26.8132068 C5.75502975,26.8132068 4.79585812,26.02843 4.79585812,23.8484945 L4.79585812,7.36818202 C4.79585812,5.18824651 5.75502975,4.35987102 7.2809846,4.35987102 C8.80693946,4.35987102 9.76611109,5.18824651 9.76611109,7.36818202 L9.76611109,10.6380853 L14.3003769,10.6380853 L14.3003769,7.673373 C14.3003769,2.79031745 11.8588492,0 7.15018847,0 C2.44152777,0 0,2.79031745 0,7.673373 L0,23.5433035 C0,28.4263591 2.44152777,31.2166765 7.15018847,31.2166765 C11.8588492,31.2166765 14.3003769,28.4263591 14.3003769,23.5433035 L14.3003769,19.4886235 L9.76611109,19.4886235 Z M27.8595758,0.348789682 L32.7426314,30.8678868 L27.9031745,30.8678868 L27.074799,25.3308506 L21.1889732,25.3308506 L20.3605977,30.8678868 L15.9571279,30.8678868 L20.8401835,0.348789682 L27.8595758,0.348789682 Z M24.066488,5.75502975 L21.7993551,21.1889732 L26.4208184,21.1889732 L24.1536855,5.75502975 L24.066488,5.75502975 Z M49.8769245,30.8678868 L44.9938689,30.8678868 C44.7322767,30.08311 44.5578818,29.6035242 44.5578818,27.1183977 L44.5578818,22.3225396 C44.5578818,19.4886235 43.5987102,18.4422544 41.4187747,18.4422544 L39.7620237,18.4422544 L39.7620237,30.8678868 L34.9661656,30.8678868 L34.9661656,0.348789682 L42.2035515,0.348789682 C47.1738044,0.348789682 49.3101412,2.65952132 49.3101412,7.36818202 L49.3101412,9.76611109 C49.3101412,12.9052182 48.3073709,14.9107589 46.1710341,15.9135292 C48.5689632,17.003497 49.35374,19.2706299 49.35374,22.4533358 L49.35374,27.1619965 C49.35374,28.6443526 49.3973387,29.7343204 49.8769245,30.8678868 Z M42.0727553,4.7086607 L39.7620237,4.7086607 L39.7620237,14.0823834 L41.6367682,14.0823834 C43.4243154,14.0823834 44.5142831,13.2976066 44.5142831,10.8560788 L44.5142831,7.84776784 C44.5142831,5.66783233 43.773105,4.7086607 42.0727553,4.7086607 Z M64.4933921,0.348789682 L69.3764476,30.8678868 L64.5369908,30.8678868 L63.7086153,25.3308506 L57.8227894,25.3308506 L56.9944139,30.8678868 L52.5909442,30.8678868 L57.4739997,0.348789682 L64.4933921,0.348789682 Z M60.7003043,5.75502975 L58.4331714,21.1889732 L63.0546346,21.1889732 L60.7875017,5.75502975 L60.7003043,5.75502975 Z M73.8126164,0.348789682 L68.9731595,0.348789682 L73.6818202,30.8678868 L80.8320087,30.8678868 L85.5406694,0.348789682 L81.1371997,0.348789682 L77.5185067,25.2436532 L77.4313093,25.2436532 L73.8126164,0.348789682 Z M97.0398292,0.348789682 L101.922885,30.8678868 L97.0834279,30.8678868 L96.2550525,25.3308506 L90.3692266,25.3308506 L89.5408511,30.8678868 L85.1373814,30.8678868 L90.0204369,0.348789682 L97.0398292,0.348789682 Z M93.2467415,5.75502975 L90.9796085,21.1889732 L95.6010718,21.1889732 L93.3339389,5.75502975 L93.2467415,5.75502975 Z M115.073346,30.8678868 L120,30.8678868 L120,0.348789682 L115.727326,0.348789682 L115.727326,18.6166493 L115.640129,18.6166493 L110.800672,0.348789682 L104.78405,0.348789682 L104.78405,30.8678868 L109.100322,30.8678868 L109.100322,8.76334075 L109.18752,8.76334075 L115.073346,30.8678868 Z"/>
</svg>

<svg xmlns="http://www.w3.org/2000/svg" width="120" height="32"><path d="M9.766 19.489v4.36c0 2.18-.96 2.964-2.485 2.964-1.526 0-2.485-.785-2.485-2.965V7.368c0-2.18.959-3.008 2.485-3.008 1.526 0 2.485.828 2.485 3.008v3.27H14.3V7.673C14.3 2.79 11.86 0 7.15 0 2.442 0 0 2.79 0 7.673v15.87c0 4.883 2.442 7.674 7.15 7.674 4.709 0 7.15-2.79 7.15-7.674V19.49H9.766ZM27.86.349l4.883 30.519h-4.84l-.828-5.537h-5.886l-.828 5.537h-4.404L20.84.348h7.02Zm-3.794 5.406L21.8 21.189h4.622L24.154 5.755h-.088Zm25.81 25.113h-4.882c-.262-.785-.436-1.264-.436-3.75v-4.795c0-2.834-.96-3.88-3.14-3.88h-1.656v12.425h-4.796V.348h7.238c4.97 0 7.106 2.312 7.106 7.02v2.398c0 3.14-1.003 5.145-3.139 6.148 2.398 1.09 3.183 3.357 3.183 6.54v4.708c0 1.482.043 2.572.523 3.706Zm-7.803-26.16h-2.311v9.374h1.875c1.787 0 2.877-.784 2.877-3.226V7.848c0-2.18-.74-3.14-2.441-3.14Zm22.42-4.36 4.883 30.52h-4.839l-.828-5.537h-5.886l-.829 5.537h-4.403L57.474.348h7.02ZM60.7 5.756l-2.267 15.434h4.622L60.788 5.755H60.7ZM73.813.349h-4.84l4.709 30.519h7.15L85.541.348h-4.404L77.52 25.245h-.088L73.813.349Zm23.227 0 4.883 30.519h-4.84l-.828-5.537H90.37l-.828 5.537h-4.404L90.02.348h7.02Zm-3.793 5.406L90.98 21.189H95.6L93.334 5.755h-.087Zm21.826 25.113H120V.348h-4.273v18.269h-.087L110.8.349h-6.016v30.519h4.316V8.763h.088l5.885 22.105Z"/></svg>
